images/ousd.svg

<svg height="250" viewBox="0 0 250 250" width="250" xmlns="http://www.w3.org/2000/svg" xmlns:xlink="http://www.w3.org/1999/xlink"><filter id="a" height="100%" width="100%" x="0%" y="0%"><feColorMatrix in="SourceGraphic" type="matrix" values="0 0 0 0 1 0 0 0 0 1 0 0 0 0 1 0 0 0 1 0"/></filter><mask id="b"><g filter="url(#a)"><path d="m0 0h250v250h-250z" fill-opacity=".2"/></g></mask><clipPath id="c"><path d="m0 0h250v250h-250z"/></clipPath><linearGradient id="d" gradientTransform="scale(.314861 .315657)" gradientUnits="userSpaceOnUse" x1="281.790497" x2="222.189697" y1="484.096588" y2="245.693207"><stop offset=".00058093" stop-color="#fff"/><stop offset="1" stop-color="#1e313f"/></linearGradient><linearGradient id="e" gradientTransform="scale(.314861 .315657)" gradientUnits="userSpaceOnUse" x1="514.419128" x2="568.059875" y1="296.093506" y2="517.808716"><stop offset=".00058093" stop-color="#fff"/><stop offset=".9967" stop-color="#4e5a64"/></linearGradient><path d="m248.425781 124.679688c.230469 68.21875-54.746093 123.703124-122.792969 123.933593-68.042968.226563-123.390624-54.886719-123.617187-123.105469-.226563-68.214843 54.75-123.699218 122.792969-123.929687 68.042968-.226563 123.390625 54.886719 123.617187 123.101563zm0 0" fill="#1e313f"/><g clip-path="url(#c)" mask="url(#b)"><path d="m202.234375 201.800781c42.253906-42.648437 42.035156-111.554687-.503906-153.914062-42.535157-42.363281-111.269531-42.140625-153.523438.503906zm0 0" fill="#fff"/></g><path d="m136.808594 114.046875c-1.199219-.253906-2.363282-.472656-3.496094-.695313-15.175781-3.0625-26.132812-5.269531-26.132812-15.8125 0-6.566406 6.453124-11.808593 18.039062-11.808593 10.296875 0 18.546875 4.199219 23.898438 12.089843l.789062.253907 16.464844-16.917969-.0625-.664062c-6.578125-7.828126-14.859375-13.257813-24.335938-16.160157-1.292968-.378906-2.613281-.726562-3.9375-1.042969-.03125 0-.0625-.03125-.09375-.03125-.472656-.09375-.945312-.191406-1.417968-.285156v-14.992187h-22.542969v15.023437c-.726563.128906-1.449219.285156-2.140625.441406-.03125 0-.09375.035157-.128906.035157-10.671876 2.523437-19.929688 8.140625-27.203126 16.601562-3.023437 5.113281-4.566406 11.238281-4.566406 18.339844 0 24.210937 18.230469 31.914063 36.054688 36.238281 3.273437.789063 6.546875 1.386719 9.664062 1.957032 11.148438 2.019531 20.78125 3.753906 20.78125 13.855468 0 6.25-6.863281 14.046875-21.222656 14.046875-8.46875 0-15.425781-2.839843-20.558594-8.082031-.316406-.3125-.691406-.597656-.976562-.914062l-19.425782 13.574218-.03125.664063c2.769532 3.28125 5.824219 6.152343 9.160157 8.585937 1.101562.820313 2.238281 1.578125 3.402343 2.300782.03125 0 .03125.035156.0625.035156 1.132813.691406 2.328126 1.355468 3.527344 1.957031.03125.03125.0625.03125.09375.0625 1.195313.597656 2.394532 1.136719 3.621094 1.640625.0625.03125.125.03125.1875.0625 1.230469.503906 2.457031.949219 3.746094 1.324219.066406.035156.160156.035156.222656.066406.566406.1875 1.164062.347656 1.730469.503906.0625.03125.125.03125.191406.0625.628906.15625 1.257813.316407 1.917969.472657.09375.03125.191406.03125.285156.0625.535156.128906 1.101562.222656 1.636719.347656v15.027344h22.511719v-15.027344c.410156-.0625.789062-.15625 1.195312-.21875.066406 0 .160156-.03125.222656-.0625 1.542969-.347656 3.085938-.757813 4.566406-1.234375.753907-.25 1.476563-.503907 2.234376-.753907 8.28125-3.0625 15.554687-8.175781 21.503906-15.214843 2.203125-2.621094 4.1875-5.492188 5.953125-8.523438.878906-3.347656 1.320312-6.976562 1.320312-10.921875-.03125-25.820312-19.617187-32.957031-36.710937-36.269531zm0 0" fill="#fafbfc"/><path d="m84.257812 169.664062c-1.101562-1.292968-2.140624-2.648437-3.117187-4.070312-.410156-.570312-.789063-1.167969-1.199219-1.769531-.09375-.15625-.1875-.28125-.28125-.410157-.347656-.566406-.691406-1.136718-1.039062-1.703124-.125-.191407-.21875-.378907-.347656-.566407-.3125-.570312-.628907-1.105469-.945313-1.675781-.125-.21875-.21875-.441406-.34375-.660156-.285156-.570313-.566406-1.136719-.851563-1.707032-.125-.21875-.21875-.472656-.3125-.695312-.253906-.566406-.535156-1.167969-.789062-1.734375-.09375-.222656-.1875-.472656-.28125-.695313-.253906-.597656-.503906-1.230468-.757812-1.832031-.0625-.125-.09375-.25-.125-.375-.535157-1.390625-1.007813-2.84375-1.449219-4.292969-.03125-.128906-.09375-.253906-.125-.378906-.160157-.507812-.285157-1.042968-.441407-1.578125-.09375-.414062-.21875-.789062-.316406-1.203125-.125-.472656-.21875-.976562-.34375-1.449218-.09375-.472657-.222656-.917969-.316406-1.390626-.09375-.472656-.1875-.945312-.28125-1.386718-.097656-.507813-.191406-1.011719-.285156-1.515625-.0625-.441407-.15625-.917969-.21875-1.359375-.097656-.535156-.160156-1.070313-.222656-1.609375-.0625-.441407-.09375-.851563-.15625-1.292969-.0625-.570312-.125-1.167969-.15625-1.769531-.035157-.410157-.066407-.820313-.097657-1.199219-.0625-.660156-.09375-1.324219-.125-2.019531-.03125-.347657-.03125-.664063-.0625-1.011719-.03125-1.007812-.0625-2.019531-.0625-3.058594 0-1.011718.03125-1.988281.0625-2.96875 0-.316406.03125-.597656.03125-.914062.03125-.695313.0625-1.359375.125-2.054688.03125-.34375.0625-.691406.09375-1.039062.066407-.664063.128907-1.296875.191407-1.957032.03125-.316406.0625-.664062.09375-.980468.09375-.789063.1875-1.546875.316406-2.304688.03125-.1875.0625-.347656.0625-.535156.15625-.914062.3125-1.863281.503906-2.777344.0625-.285156.125-.570312.1875-.851562.125-.632813.285156-1.265625.410156-1.894532.09375-.347656.15625-.695312.25-1.042968.160156-.566406.285156-1.136719.441406-1.703125.09375-.347657.191407-.695313.285157-1.011719.1875-.597656.375-1.199219.566406-1.796875.09375-.285156.15625-.570313.25-.820313.285156-.855468.566406-1.675781.882813-2.496093.09375-.25.21875-.535157.316406-.789063.21875-.566406.4375-1.136718.691406-1.703125.15625-.347656.28125-.664062.441406-.980469.21875-.472656.441406-.976562.660156-1.449218.15625-.347656.316407-.664063.472657-1.011719.25-.503906.503906-.980469.753906-1.453125.160156-.28125.316406-.597656.472656-.882812.410157-.726563.820313-1.453126 1.261719-2.179688-.882812 3.378906-1.355469 7.039062-1.355469 10.921875 0 13.320313 5.636719 23.484375 16.75 30.335937.597657 12.027344 4.09375 21.402344 10.046875 27.492188zm0 0" fill="url(#d)"/><path d="m149.085938 97.820312c3.496093 5.179688 5.699218 11.777344 6.519531 19.730469 2.832031 1.355469 5.382812 2.933594 7.554687 4.640625 8.25 6.46875 12.46875 15.875 12.46875 27.902344 0 1.453125-.0625 2.90625-.1875 4.292969 0-.03125.03125-.0625.03125-.09375.410156-.980469.785156-1.957031 1.164063-2.9375.09375-.28125.191406-.535157.285156-.820313.25-.722656.503906-1.449218.722656-2.175781.09375-.347656.222657-.695313.316407-1.042969.125-.441406.25-.882812.375-1.324218.160156-.570313.316406-1.167969.472656-1.738282.128906-.441406.222656-.882812.316406-1.324218.125-.503907.21875-1.011719.347656-1.515626.0625-.347656.15625-.664062.21875-1.011718.15625-.757813.285156-1.511719.410156-2.300782.0625-.316406.09375-.601562.15625-.917968.125-.820313.253907-1.640625.347657-2.492188.03125-.191406.03125-.347656.0625-.539062.09375-.789063.15625-1.578125.21875-2.335938.03125-.21875.03125-.410156.0625-.628906.066406-.917969.128906-1.800781.160156-2.714844 0-.191406 0-.378906.03125-.601562.03125-.945313.0625-1.925782.0625-2.871094 0-1.042969-.03125-2.082031-.0625-3.125 0-.347656-.03125-.664062-.0625-1.011719-.03125-.691406-.0625-1.386719-.128906-2.082031-.03125-.410156-.0625-.820312-.09375-1.199219-.0625-.601562-.09375-1.230469-.1875-1.832031-.0625-.441406-.09375-.851562-.15625-1.292969-.066407-.566406-.160157-1.136719-.222657-1.703125-.0625-.441406-.15625-.886718-.21875-1.328125-.09375-.535156-.191406-1.070312-.285156-1.609375-.09375-.441406-.1875-.914062-.28125-1.355468-.097656-.507813-.222656-1.042969-.347656-1.546876-.09375-.441406-.21875-.917968-.347656-1.359374-.125-.503907-.25-1.007813-.40625-1.484376-.128906-.441406-.253906-.914062-.378906-1.355468-.15625-.472656-.285157-.945313-.441407-1.421875-.15625-.441407-.285156-.882813-.441406-1.324219-.15625-.472656-.3125-.914062-.503906-1.390625-.15625-.441406-.3125-.882813-.503907-1.324219-.1875-.441406-.34375-.882812-.535156-1.324218-.1875-.445313-.378906-.886719-.566406-1.296876-.1875-.441406-.378906-.851562-.597656-1.261718-.1875-.441406-.410156-.851563-.597656-1.292969-.191407-.410156-.410157-.820313-.628907-1.199219-.222656-.410156-.441406-.855468-.664062-1.265625-.21875-.378906-.441407-.789062-.660157-1.167969-.25-.410156-.472656-.820312-.722656-1.230468-.222656-.378906-.472656-.726563-.726562-1.105469-.753906-1.132813-1.511719-2.269531-2.328125-3.34375-.566407-.757813-1.164063-1.515625-1.796875-2.273437zm0 0" fill="url(#e)"/></svg>

<!-- Generator: Adobe Illustrator 21.1.0, SVG Export Plug-In . SVG Version: 6.00 Build 0)  -->
<svg xmlns="http://www.w3.org/2000/svg" xmlns:xlink="http://www.w3.org/1999/xlink" width="250px" height="250px" viewBox="0 0 250 250" version="1.1">
<defs>
<filter id="alpha" filterUnits="objectBoundingBox" x="0%" y="0%" width="100%" height="100%">
  <feColorMatrix type="matrix" in="SourceGraphic" values="0 0 0 0 1 0 0 0 0 1 0 0 0 0 1 0 0 0 1 0"/>
</filter>
<mask id="mask0">
  <g filter="url(#alpha)">
<rect x="0" y="0" width="250" height="250" style="fill:rgb(0%,0%,0%);fill-opacity:0.2;stroke:none;"/>
  </g>
</mask>
<clipPath id="clip1">
  <rect x="0" y="0" width="250" height="250"/>
</clipPath>
<g id="surface5" clip-path="url(#clip1)">
<path style=" stroke:none;fill-rule:nonzero;fill:rgb(100%,100%,100%);fill-opacity:1;" d="M 202.234375 201.800781 C 244.488281 159.152344 244.269531 90.246094 201.730469 47.886719 C 159.195312 5.523438 90.460938 5.746094 48.207031 48.390625 Z M 202.234375 201.800781 "/>
</g>
<linearGradient id="linear0" gradientUnits="userSpaceOnUse" x1="281.790497" y1="484.096588" x2="222.189697" y2="245.693207" gradientTransform="matrix(0.314861,0,0,0.315657,0,0)">
<stop offset="0.00058093" style="stop-color:rgb(100%,100%,100%);stop-opacity:1;"/>
<stop offset="1" style="stop-color:rgb(11.764706%,19.215687%,24.705882%);stop-opacity:1;"/>
</linearGradient>
<linearGradient id="linear1" gradientUnits="userSpaceOnUse" x1="514.419128" y1="296.093506" x2="568.059875" y2="517.808716" gradientTransform="matrix(0.314861,0,0,0.315657,0,0)">
<stop offset="0.00058093" style="stop-color:rgb(100%,100%,100%);stop-opacity:1;"/>
<stop offset="0.9967" style="stop-color:rgb(30.588236%,35.294119%,39.215687%);stop-opacity:1;"/>
</linearGradient>
</defs>
<g id="surface1">
<path style=" stroke:none;fill-rule:nonzero;fill:rgb(11.764706%,19.215687%,24.705882%);fill-opacity:1;" d="M 248.425781 124.679688 C 248.65625 192.898438 193.679688 248.382812 125.632812 248.613281 C 57.589844 248.839844 2.242188 193.726562 2.015625 125.507812 C 1.789062 57.292969 56.765625 1.808594 124.808594 1.578125 C 192.851562 1.351562 248.199219 56.464844 248.425781 124.679688 Z M 248.425781 124.679688 "/>
<use xlink:href="#surface5" mask="url(#mask0)"/>
<path style=" stroke:none;fill-rule:nonzero;fill:rgb(98.039216%,98.431373%,98.823529%);fill-opacity:1;" d="M 136.808594 114.046875 C 135.609375 113.792969 134.445312 113.574219 133.3125 113.351562 C 118.136719 110.289062 107.179688 108.082031 107.179688 97.539062 C 107.179688 90.972656 113.632812 85.730469 125.21875 85.730469 C 135.515625 85.730469 143.765625 89.929688 149.117188 97.820312 L 149.90625 98.074219 L 166.371094 81.15625 L 166.308594 80.492188 C 159.730469 72.664062 151.449219 67.234375 141.972656 64.332031 C 140.679688 63.953125 139.359375 63.605469 138.035156 63.289062 C 138.003906 63.289062 137.972656 63.257812 137.941406 63.257812 C 137.46875 63.164062 136.996094 63.066406 136.523438 62.972656 L 136.523438 47.980469 L 113.980469 47.980469 L 113.980469 63.003906 C 113.253906 63.132812 112.53125 63.289062 111.839844 63.445312 C 111.808594 63.445312 111.746094 63.480469 111.710938 63.480469 C 101.039062 66.003906 91.78125 71.621094 84.507812 80.082031 C 81.484375 85.195312 79.941406 91.320312 79.941406 98.421875 C 79.941406 122.632812 98.171875 130.335938 115.996094 134.660156 C 119.269531 135.449219 122.542969 136.046875 125.660156 136.617188 C 136.808594 138.636719 146.441406 140.371094 146.441406 150.472656 C 146.441406 156.722656 139.578125 164.519531 125.21875 164.519531 C 116.75 164.519531 109.792969 161.679688 104.660156 156.4375 C 104.34375 156.125 103.96875 155.839844 103.683594 155.523438 L 84.257812 169.097656 L 84.226562 169.761719 C 86.996094 173.042969 90.050781 175.914062 93.386719 178.347656 C 94.488281 179.167969 95.625 179.925781 96.789062 180.648438 C 96.820312 180.648438 96.820312 180.683594 96.851562 180.683594 C 97.984375 181.375 99.179688 182.039062 100.378906 182.640625 C 100.410156 182.671875 100.441406 182.671875 100.472656 182.703125 C 101.667969 183.300781 102.867188 183.839844 104.09375 184.34375 C 104.15625 184.375 104.21875 184.375 104.28125 184.40625 C 105.511719 184.910156 106.738281 185.355469 108.027344 185.730469 C 108.09375 185.765625 108.1875 185.765625 108.25 185.796875 C 108.816406 185.984375 109.414062 186.144531 109.980469 186.300781 C 110.042969 186.332031 110.105469 186.332031 110.171875 186.363281 C 110.800781 186.519531 111.429688 186.679688 112.089844 186.835938 C 112.183594 186.867188 112.28125 186.867188 112.375 186.898438 C 112.910156 187.027344 113.476562 187.121094 114.011719 187.246094 L 114.011719 202.273438 L 136.523438 202.273438 L 136.523438 187.246094 C 136.933594 187.183594 137.3125 187.089844 137.71875 187.027344 C 137.785156 187.027344 137.878906 186.996094 137.941406 186.964844 C 139.484375 186.617188 141.027344 186.207031 142.507812 185.730469 C 143.261719 185.480469 143.984375 185.226562 144.742188 184.976562 C 153.023438 181.914062 160.296875 176.800781 166.246094 169.761719 C 168.449219 167.140625 170.433594 164.269531 172.199219 161.238281 C 173.078125 157.890625 173.519531 154.261719 173.519531 150.316406 C 173.488281 124.496094 153.902344 117.359375 136.808594 114.046875 Z M 136.808594 114.046875 "/>
<path style=" stroke:none;fill-rule:nonzero;fill:url(#linear0);" d="M 84.257812 169.664062 C 83.15625 168.371094 82.117188 167.015625 81.140625 165.59375 C 80.730469 165.023438 80.351562 164.425781 79.941406 163.824219 C 79.847656 163.667969 79.753906 163.542969 79.660156 163.414062 C 79.3125 162.847656 78.96875 162.277344 78.621094 161.710938 C 78.496094 161.519531 78.402344 161.332031 78.273438 161.144531 C 77.960938 160.574219 77.644531 160.039062 77.328125 159.46875 C 77.203125 159.25 77.109375 159.027344 76.984375 158.808594 C 76.699219 158.238281 76.417969 157.671875 76.132812 157.101562 C 76.007812 156.882812 75.914062 156.628906 75.820312 156.40625 C 75.566406 155.839844 75.285156 155.238281 75.03125 154.671875 C 74.9375 154.449219 74.84375 154.199219 74.75 153.976562 C 74.496094 153.378906 74.246094 152.746094 73.992188 152.144531 C 73.929688 152.019531 73.898438 151.894531 73.867188 151.769531 C 73.332031 150.378906 72.859375 148.925781 72.417969 147.476562 C 72.386719 147.347656 72.324219 147.222656 72.292969 147.097656 C 72.132812 146.589844 72.007812 146.054688 71.851562 145.519531 C 71.757812 145.105469 71.632812 144.730469 71.535156 144.316406 C 71.410156 143.84375 71.316406 143.339844 71.191406 142.867188 C 71.097656 142.394531 70.96875 141.949219 70.875 141.476562 C 70.78125 141.003906 70.6875 140.53125 70.59375 140.089844 C 70.496094 139.582031 70.402344 139.078125 70.308594 138.574219 C 70.246094 138.132812 70.152344 137.65625 70.089844 137.214844 C 69.992188 136.679688 69.929688 136.144531 69.867188 135.605469 C 69.804688 135.164062 69.773438 134.753906 69.710938 134.3125 C 69.648438 133.742188 69.585938 133.144531 69.554688 132.542969 C 69.519531 132.132812 69.488281 131.722656 69.457031 131.34375 C 69.394531 130.683594 69.363281 130.019531 69.332031 129.324219 C 69.300781 128.976562 69.300781 128.660156 69.269531 128.3125 C 69.238281 127.304688 69.207031 126.292969 69.207031 125.253906 C 69.207031 124.242188 69.238281 123.265625 69.269531 122.285156 C 69.269531 121.96875 69.300781 121.6875 69.300781 121.371094 C 69.332031 120.675781 69.363281 120.011719 69.425781 119.316406 C 69.457031 118.972656 69.488281 118.625 69.519531 118.277344 C 69.585938 117.613281 69.648438 116.980469 69.710938 116.320312 C 69.742188 116.003906 69.773438 115.65625 69.804688 115.339844 C 69.898438 114.550781 69.992188 113.792969 70.121094 113.035156 C 70.152344 112.847656 70.183594 112.6875 70.183594 112.5 C 70.339844 111.585938 70.496094 110.636719 70.6875 109.722656 C 70.75 109.4375 70.8125 109.152344 70.875 108.871094 C 71 108.238281 71.160156 107.605469 71.285156 106.976562 C 71.378906 106.628906 71.441406 106.28125 71.535156 105.933594 C 71.695312 105.367188 71.820312 104.796875 71.976562 104.230469 C 72.070312 103.882812 72.167969 103.535156 72.261719 103.21875 C 72.449219 102.621094 72.636719 102.019531 72.828125 101.421875 C 72.921875 101.136719 72.984375 100.851562 73.078125 100.601562 C 73.363281 99.746094 73.644531 98.925781 73.960938 98.105469 C 74.054688 97.855469 74.179688 97.570312 74.277344 97.316406 C 74.496094 96.75 74.714844 96.179688 74.96875 95.613281 C 75.125 95.265625 75.25 94.949219 75.410156 94.632812 C 75.628906 94.160156 75.851562 93.65625 76.070312 93.183594 C 76.226562 92.835938 76.386719 92.519531 76.542969 92.171875 C 76.792969 91.667969 77.046875 91.191406 77.296875 90.71875 C 77.457031 90.4375 77.613281 90.121094 77.769531 89.835938 C 78.179688 89.109375 78.589844 88.382812 79.03125 87.65625 C 78.148438 91.035156 77.675781 94.695312 77.675781 98.578125 C 77.675781 111.898438 83.3125 122.0625 94.425781 128.914062 C 95.023438 140.941406 98.519531 150.316406 104.472656 156.40625 Z M 84.257812 169.664062 "/>
<path style=" stroke:none;fill-rule:nonzero;fill:url(#linear1);" d="M 149.085938 97.820312 C 152.582031 103 154.785156 109.597656 155.605469 117.550781 C 158.4375 118.90625 160.988281 120.484375 163.160156 122.191406 C 171.410156 128.660156 175.628906 138.066406 175.628906 150.09375 C 175.628906 151.546875 175.566406 153 175.441406 154.386719 C 175.441406 154.355469 175.472656 154.324219 175.472656 154.292969 C 175.882812 153.3125 176.257812 152.335938 176.636719 151.355469 C 176.730469 151.074219 176.828125 150.820312 176.921875 150.535156 C 177.171875 149.8125 177.425781 149.085938 177.644531 148.359375 C 177.738281 148.011719 177.867188 147.664062 177.960938 147.316406 C 178.085938 146.875 178.210938 146.433594 178.335938 145.992188 C 178.496094 145.421875 178.652344 144.824219 178.808594 144.253906 C 178.9375 143.8125 179.03125 143.371094 179.125 142.929688 C 179.25 142.425781 179.34375 141.917969 179.472656 141.414062 C 179.535156 141.066406 179.628906 140.75 179.691406 140.402344 C 179.847656 139.644531 179.976562 138.890625 180.101562 138.101562 C 180.164062 137.785156 180.195312 137.5 180.257812 137.183594 C 180.382812 136.363281 180.511719 135.542969 180.605469 134.691406 C 180.636719 134.5 180.636719 134.34375 180.667969 134.152344 C 180.761719 133.363281 180.824219 132.574219 180.886719 131.816406 C 180.917969 131.597656 180.917969 131.40625 180.949219 131.1875 C 181.015625 130.269531 181.078125 129.386719 181.109375 128.472656 C 181.109375 128.28125 181.109375 128.09375 181.140625 127.871094 C 181.171875 126.925781 181.203125 125.945312 181.203125 125 C 181.203125 123.957031 181.171875 122.917969 181.140625 121.875 C 181.140625 121.527344 181.109375 121.210938 181.078125 120.863281 C 181.046875 120.171875 181.015625 119.476562 180.949219 118.78125 C 180.917969 118.371094 180.886719 117.960938 180.855469 117.582031 C 180.792969 116.980469 180.761719 116.351562 180.667969 115.75 C 180.605469 115.308594 180.574219 114.898438 180.511719 114.457031 C 180.445312 113.890625 180.351562 113.320312 180.289062 112.753906 C 180.226562 112.3125 180.132812 111.867188 180.070312 111.425781 C 179.976562 110.890625 179.878906 110.355469 179.785156 109.816406 C 179.691406 109.375 179.597656 108.902344 179.503906 108.460938 C 179.40625 107.953125 179.28125 107.417969 179.15625 106.914062 C 179.0625 106.472656 178.9375 105.996094 178.808594 105.554688 C 178.683594 105.050781 178.558594 104.546875 178.402344 104.070312 C 178.273438 103.628906 178.148438 103.15625 178.023438 102.714844 C 177.867188 102.242188 177.738281 101.769531 177.582031 101.292969 C 177.425781 100.851562 177.296875 100.410156 177.140625 99.96875 C 176.984375 99.496094 176.828125 99.054688 176.636719 98.578125 C 176.480469 98.136719 176.324219 97.695312 176.132812 97.253906 C 175.945312 96.8125 175.789062 96.371094 175.597656 95.929688 C 175.410156 95.484375 175.21875 95.042969 175.03125 94.632812 C 174.84375 94.191406 174.652344 93.78125 174.433594 93.371094 C 174.246094 92.929688 174.023438 92.519531 173.835938 92.078125 C 173.644531 91.667969 173.425781 91.257812 173.207031 90.878906 C 172.984375 90.46875 172.765625 90.023438 172.542969 89.613281 C 172.324219 89.234375 172.101562 88.824219 171.882812 88.445312 C 171.632812 88.035156 171.410156 87.625 171.160156 87.214844 C 170.9375 86.835938 170.6875 86.488281 170.433594 86.109375 C 169.679688 84.976562 168.921875 83.839844 168.105469 82.765625 C 167.539062 82.007812 166.941406 81.25 166.308594 80.492188 Z M 149.085938 97.820312 "/>
</g>
</svg>
